!!!SOCIAL_FUNCTION:	songs of the bear dance
!!!PDT:	1922
!!!OTL: No_3_Dance_Faster.krn
!!!REG: Southwest
!!!LANG: Non-Tone
!!!LING_GROUP: Uto-Aztecan
**kern
*staff1
=1-
*clefF4
*k[]
*M2/4
2c\
=2
4c\
8.G\L
16G\Jk
=3
8.c\L
16G\Jk
8.c\L
16c\Jk
=4||
*M3/4
12F\L
12E\
12E\J
4F;\
16F/LL
16E/
16C/
16C/JJ
=5||
*M2/4
16E\LK
8.E\J
8C/L
8C/J
=6
2c\
=7
4c\
8G\
8r
=8
16c\LK
8.c\J
8.c\L
16c\Jk
=9||
*M3/4
12F\L
12E\
12E\J
4F;\
16F/LL
16E/
16C/
16C/JJ
=10
16E\LK
8.E\J
8.C/L
16C/Jk
4C/
=11
16C/LK
8.C/J
8.C/L
16C/Jk
4C/
=12||
*M2/4
4C/
16C/LK
8.C/J
=13
8.C/L
16C/Jk
4C/
=14
16E\LK
8.E\J
8.C/L
16C/Jk
=15
16E\LK
8.E\J
8.C/L
16C/Jk
=16
4E\
8E/L
16C/L
16C/JJ
=17
4C/
8C/L
8C/J
=18
16E\LK
8.E\J
8.C/L
16C/Jk
=19
16E\LK
8.E\J
8.C/L
16C/Jk
=20
4E\
8E/L
16C/L
16C/JJ
=21
4C/
8C/L
8C/J
=22
4F\
16F/LL
16E/
16C/
16C/JJ
=23
4E\
8.C/L
16C/Jk
=24
4E\
8E/L
16C/L
16C/JJ
=25
4C/
8C/L
8C/J
=26
4GG/
8C/L
8C/J
=27
4C/
8C/L
8C/J
=28
4GG/
8C/L
8C/J
=29
4C/
4C/
==
*-
